map/src/routing/resources/finish.svg

<svg width="40" height="47" viewBox="0 0 40 47" xmlns="http://www.w3.org/2000/svg">
    <path d="M11 28C10.7348 28 10.4804 27.8946 10.2929 27.7071C10.1054 27.5196 10 27.2652 10 27V15C10 14.7348 10.1054 14.4804 10.2929 14.2929C10.4804 14.1054 10.7348 14 11 14C11.2652 14 11.5196 14.1054 11.7071 14.2929C11.8946 14.4804 12 14.7348 12 15V27C12 27.2652 11.8946 27.5196 11.7071 27.7071C11.5196 27.8946 11.2652 28 11 28ZM27 15H13V21H27V15ZM28.2929 27.7071C28.4804 27.8946 28.7348 28 29 28C29.2652 28 29.5196 27.8946 29.7071 27.7071C29.8946 27.5196 30 27.2652 30 27V15C30 14.7348 29.8946 14.4804 29.7071 14.2929C29.5196 14.1054 29.2652 14 29 14C28.7348 14 28.4804 14.1054 28.2929 14.2929C28.1054 14.4804 28 14.7348 28 15V27C28 27.2652 28.1054 27.5196 28.2929 27.7071Z"
          fill="#F4F5F6"/>
</svg>

<svg xmlns="http://www.w3.org/2000/svg" width="40" height="47">
    <path d="M11 28a1 1 0 0 1-1-1V15a1 1 0 0 1 1-1 1 1 0 0 1 1 1v12a1 1 0 0 1-1 1zm16-13H13v6h14v-6zm1.293 12.707a1 1 0 0 0 1.414 0A1 1 0 0 0 30 27V15a1 1 0 0 0-1-1 1 1 0 0 0-1 1v12a1 1 0 0 0 .293.707z"
          fill="#f4f5f6"/>
</svg>
